X:1
T: Boys of Cornacrieve, The
S: from Willy McKeever, Cross Keys, Randalstown
N: Nigel Boullier says this a Willy (Liam) Donnelly composition. Willy McKeever gave it to me on a scrap of paper one night in the Cross Keys, early 1970s.
L: 1/8
M: 4/4
K: D
|: EB{c}BA BGFE | DEFD EDFD | EB{c}BA BGFE | DFAF E3 D |
 EB{c}BA BGFE | DEFD EDFA | B/c/d BA FBAF |1 EDAF E2 FD :|2 EDAF E2 FA ||
|: Bdef afef | afbf afef | dB{c}BA GEFA | B/c/d BA FEFA |
 Bdef afef | afbf afef | dB{c}BA FBAF |1 EDAF E2 FA :|2 EDAF E3 D ||

